src/assets/favicon.svg

<svg xmlns="http://www.w3.org/2000/svg" xmlns:xlink="http://www.w3.org/1999/xlink" preserveAspectRatio="xMidYMid meet" version="1.0" viewBox="107.45 75.61 234.2 222.88" zoomAndPan="magnify"><defs><clipPath id="id1"><path d="M 118.769531 75.609375 L 341.648438 75.609375 L 341.648438 298.488281 L 118.769531 298.488281 Z M 118.769531 75.609375" clip-rule="nonzero"/></clipPath><clipPath id="id2"><path d="M 107.449219 91.546875 L 241 91.546875 L 241 220 L 107.449219 220 Z M 107.449219 91.546875" clip-rule="nonzero"/></clipPath><clipPath id="id3"><path d="M 207 154 L 341.46875 154 L 341.46875 283 L 207 283 Z M 207 154" clip-rule="nonzero"/></clipPath></defs><g clip-path="url(#id1)"><path fill="#dee3f5" fill-opacity="1" fill-rule="nonzero" d="M 230.207031 75.609375 C 168.664062 75.609375 118.769531 125.5 118.769531 187.046875 C 118.769531 248.59375 168.664062 298.488281 230.207031 298.488281 C 291.753906 298.488281 341.648438 248.59375 341.648438 187.046875 C 341.648438 125.5 291.753906 75.609375 230.207031 75.609375"/></g><path fill="#005ce6" fill-opacity="1" fill-rule="nonzero" d="M 189.996094 155.382812 C 191.726562 152.378906 192.566406 148.949219 192.566406 145.191406 C 192.566406 141.433594 191.726562 138.054688 189.996094 135.003906 C 188.261719 131.996094 185.921875 129.601562 182.929688 127.910156 C 179.933594 126.21875 176.5625 125.375 172.820312 125.375 C 169.078125 125.375 165.707031 126.21875 162.710938 127.910156 C 159.71875 129.601562 157.378906 131.949219 155.648438 135.003906 C 153.914062 138.054688 153.074219 141.433594 153.074219 145.191406 C 153.074219 148.949219 153.914062 152.332031 155.648438 155.382812 C 157.378906 158.433594 159.71875 160.78125 162.710938 162.472656 C 165.707031 164.164062 169.078125 165.007812 172.820312 165.007812 C 176.5625 165.007812 179.933594 164.164062 182.929688 162.472656 C 185.921875 160.78125 188.261719 158.433594 189.996094 155.382812 Z M 189.996094 155.382812"/><g clip-path="url(#id2)"><path fill="#005ce6" fill-opacity="1" fill-rule="nonzero" d="M 241 150.96875 C 241 118.285156 211.050781 91.660156 174.222656 91.660156 C 137.398438 91.660156 107.449219 118.285156 107.449219 150.96875 C 107.449219 166.230469 113.953125 180.695312 125.792969 191.777344 C 126.960938 192.855469 127.242188 194.640625 126.445312 196.050781 L 114.46875 216.898438 C 113.53125 218.496094 115.121094 220.375 116.855469 219.765625 L 150.96875 207.320312 C 151.667969 207.085938 152.417969 207.039062 153.121094 207.273438 C 159.90625 209.292969 167.019531 210.324219 174.222656 210.324219 C 211.050781 210.324219 241 183.699219 241 150.96875 Z M 199.304688 183.980469 C 196.828125 185.109375 194.113281 185.671875 191.164062 185.671875 C 187.328125 185.671875 183.769531 184.777344 180.589844 183.042969 C 177.359375 181.304688 173.710938 178.296875 169.589844 173.976562 C 164.398438 173.554688 159.765625 172.054688 155.648438 169.421875 C 151.527344 166.839844 148.347656 163.414062 146.007812 159.234375 C 143.714844 155.007812 142.542969 150.359375 142.542969 145.191406 C 142.542969 139.746094 143.855469 134.765625 146.476562 130.351562 C 149.09375 125.9375 152.699219 122.464844 157.285156 119.976562 C 161.871094 117.484375 167.019531 116.21875 172.773438 116.21875 C 178.484375 116.21875 183.628906 117.484375 188.261719 119.976562 C 192.847656 122.464844 196.453125 125.890625 199.074219 130.304688 C 201.691406 134.71875 203.003906 139.652344 203.003906 145.191406 C 203.003906 149.652344 202.113281 153.738281 200.335938 157.542969 C 198.558594 161.300781 196.125 164.539062 192.941406 167.214844 C 189.808594 169.894531 186.109375 171.769531 181.945312 172.945312 C 183.488281 174.589844 185.035156 175.808594 186.53125 176.5625 C 188.027344 177.3125 189.621094 177.6875 191.351562 177.6875 C 195.046875 177.6875 198.230469 176.1875 200.992188 173.179688 L 205.8125 178.957031 C 203.984375 181.210938 201.785156 182.855469 199.304688 183.980469 Z M 199.304688 183.980469"/></g><path fill="#005ce6" fill-opacity="1" fill-rule="nonzero" d="M 264.023438 220.703125 L 285.082031 220.703125 L 274.503906 196.097656 Z M 264.023438 220.703125"/><g clip-path="url(#id3)"><path fill="#005ce6" fill-opacity="1" fill-rule="nonzero" d="M 322.46875 258.835938 C 321.675781 257.425781 321.910156 255.6875 323.125 254.5625 C 334.964844 243.480469 341.46875 229.015625 341.46875 213.753906 C 341.46875 181.023438 311.519531 154.441406 274.691406 154.441406 C 265.148438 154.441406 255.976562 156.179688 247.363281 159.609375 C 246.523438 165.574219 244.746094 171.347656 242.125 176.890625 C 238.378906 184.777344 233.046875 191.871094 226.261719 197.929688 C 220.878906 202.765625 214.75 206.757812 208.058594 209.855469 C 207.964844 211.171875 207.917969 212.4375 207.917969 213.753906 C 207.917969 246.484375 237.867188 273.0625 274.691406 273.0625 C 281.898438 273.0625 289.011719 272.03125 295.796875 270.011719 C 296.5 269.824219 297.25 269.824219 297.949219 270.058594 L 332.0625 282.503906 C 333.792969 283.113281 335.386719 281.234375 334.449219 279.636719 Z M 294.160156 241.929688 L 288.542969 228.921875 L 260.515625 228.921875 L 254.945312 241.929688 L 244.230469 241.929688 L 269.453125 185.625 L 279.699219 185.625 L 305.0625 241.929688 Z M 294.160156 241.929688"/></g></svg>

<svg xmlns="http://www.w3.org/2000/svg" version="1.0" viewBox="107.45 75.61 234.2 222.88"><defs><clipPath id="a"><path d="M118.77 75.61h222.878v222.878H118.77zm0 0"/></clipPath><clipPath id="b"><path d="M107.45 91.547H241V220H107.45zm0 0"/></clipPath><clipPath id="c"><path d="M207 154h134.469v129H207zm0 0"/></clipPath></defs><g clip-path="url(#a)"><path fill="#dee3f5" d="M230.207 75.61c-61.543 0-111.437 49.89-111.437 111.437s49.894 111.441 111.437 111.441c61.547 0 111.441-49.894 111.441-111.441 0-61.547-49.894-111.438-111.441-111.438"/></g><path fill="#005ce6" d="M189.996 155.383c1.73-3.004 2.57-6.434 2.57-10.192 0-3.757-.84-7.136-2.57-10.187-1.734-3.008-4.074-5.402-7.066-7.094-2.996-1.691-6.368-2.535-10.11-2.535-3.742 0-7.113.844-10.11 2.535-2.991 1.692-5.331 4.04-7.062 7.094-1.734 3.05-2.574 6.43-2.574 10.187 0 3.758.84 7.141 2.574 10.192 1.73 3.05 4.07 5.398 7.063 7.09 2.996 1.691 6.367 2.535 10.11 2.535 3.742 0 7.113-.844 10.109-2.535 2.992-1.692 5.332-4.04 7.066-7.09zm0 0"/><g clip-path="url(#b)"><path fill="#005ce6" d="M241 150.969c0-32.684-29.95-59.309-66.777-59.309-36.825 0-66.774 26.625-66.774 59.309 0 15.261 6.504 29.726 18.344 40.808 1.168 1.078 1.45 2.864.652 4.274l-11.976 20.847c-.938 1.598.652 3.477 2.386 2.868l34.114-12.446c.699-.234 1.449-.28 2.152-.047a73.993 73.993 0 0 0 21.102 3.051C211.05 210.324 241 183.7 241 150.97zm-41.695 33.011c-2.477 1.13-5.192 1.692-8.14 1.692-3.837 0-7.395-.895-10.575-2.629-3.23-1.738-6.88-4.746-11-9.066-5.192-.422-9.824-1.922-13.942-4.555-4.12-2.582-7.3-6.008-9.64-10.188-2.293-4.226-3.465-8.875-3.465-14.043 0-5.445 1.312-10.425 3.934-14.84 2.617-4.413 6.222-7.886 10.808-10.374 4.586-2.493 9.735-3.758 15.488-3.758 5.711 0 10.856 1.265 15.489 3.758 4.586 2.488 8.191 5.914 10.812 10.328 2.617 4.414 3.93 9.347 3.93 14.886 0 4.461-.89 8.547-2.668 12.352-1.777 3.758-4.211 6.996-7.395 9.672-3.132 2.68-6.832 4.555-10.996 5.73 1.543 1.645 3.09 2.864 4.586 3.618 1.496.75 3.09 1.125 4.82 1.125 3.696 0 6.88-1.5 9.641-4.508l4.82 5.777a17.672 17.672 0 0 1-6.507 5.023zm0 0"/></g><path fill="#005ce6" d="M264.023 220.703h21.059l-10.578-24.605zm0 0"/><g clip-path="url(#c)"><path fill="#005ce6" d="M322.469 258.836c-.793-1.41-.559-3.149.656-4.274 11.84-11.082 18.344-25.546 18.344-40.808 0-32.73-29.95-59.313-66.778-59.313-9.543 0-18.714 1.739-27.328 5.168-.84 5.965-2.617 11.739-5.238 17.282-3.746 7.886-9.078 14.98-15.863 21.039-5.383 4.836-11.512 8.828-18.203 11.925a54.16 54.16 0 0 0-.141 3.899c0 32.73 29.95 59.309 66.773 59.309a74 74 0 0 0 21.106-3.051 3.741 3.741 0 0 1 2.152.047l34.113 12.445c1.731.61 3.325-1.27 2.387-2.867zM294.16 241.93l-5.617-13.008h-28.027l-5.57 13.008H244.23l25.223-56.305H279.7l25.363 56.305zm0 0"/></g></svg>
